X:1
T:Title
%%score ( 1 2 ) { ( 3 5 ) | 4 }
L:1/8
Q:1/4=105
M:3/4
K:Bb
V:1 treble nm="Drawbar Organ, Soprano"
V:2 treble 
V:3 bass nm="Church Organ, Beautiful Christmas Tide"
V:5 bass 
V:4 bass 
V:1
 [DF]2 [_D=E]2 [=DF]2 | [EG]>[DF] [Fd]4 | [Ec]2 [EG]2 [EB]2 | [DF]6 | [DF]2 [_D=E]2 [=DF]2 | %5
w: By~Joseph~Lincoln~Hall * *|||||
 [EG]>[DF] [Fd]4 | [=Ec]2 [EG]2 [Ed]2 | [Ec]6 | [Fd]2 [Fd]2 [Fd]2 | [Ec]>[EB] [EG]4 | %10
w: |||||
 [EA]2 [CE]2 [EG]2 | [DF]6 | [Fd]2 [Fe]2 [Fd]2 | [=Ec]>[EB] [EG]4 | [EA]2 [Ed]2 [Ec]2 | [DB]6 | %16
w: ||||||
[Q:1/4=90] z .G3 B2 | z A3 G2 | z .c3 c2 | z B3 A2 | z .d3 d2 | z c3 B2 | z .B3 G2 | %23
w: |||||||
 .[=Ed]2 fe z e | z .B3 B2 | z A3 G2 | [EG] B2 A c2 | z d- d3- d/ z/ | %28
w: |||||
 [^FAd][G=Bd] [GB_d][GB=d] [GBf][GBe] | [G=Bd][EGc] [EGB][EGc] [EGce][FGBd] | z2 z2 d2 | z B- B4- | %32
w: ||||
 B4 z2 |] %33
w: |
V:2
 x6 | x6 | x6 | x6 | x6 | x6 | x6 | x6 | x6 | x6 | x6 | x6 | x6 | x6 | x6 | x6 | %16
 .F2 [DF][DF] z [D^F] | .[D^FA]2 EE z E | .[EG]2 =E[EG] z E | .[=EB]2 _EE z E | %20
 .[EA]2 [D^F][DFA] z [DF] | .[D^Fc]2 [EG][EG] z [DG] | .[DGB]2 [=EA][EB] z E | z [Fc]- [Fc]4 | %24
 .F2 [DF][DF] z [D^F] | .[D^FA]2 EE z E | x6 | .B2 [^FA][GB] [Ac][GB] | x6 | x6 | %30
 [EGc][DFB] [CEA][DFB] [FB][EA] | [EAc][DF] [B,E][B,E] [B,D]2- | [B,D]4 z2 |] %33
V:3
 B,2 B,2 B,2 | B,>B, B,4 | G,2 B,2 G,2 | B,6 | B,2 B,2 B,2 | B,>B, B,4 | B,2 G,2 B,2 | A,6 | %8
 B,2 B,2 B,2 | G,>G, B,4 | F,2 A,2 A,2 | B,6 | =B,2 B,2 B,2 | C>C C4 | C2 G,2[K:bass] A,2 | B,6 | %16
 z2 B,B, z C | .C2 B,B, z B, | .B,2 CC z C | .C2 CC z C | .C2 CC z C | .C2 B,B, z B, | %22
 .B,2 CC z C | .C2 EE z E | .E2 B,B, z C | .C2 B,B, z B, | B, B,2[K:treble] A, C2 | CD- D4- | %28
 D[K:bass] z FF FF | FC CC C,D, | E,F, ^F,=F, F,G, | A,B, ^F,F, =F,2- | F,4 z2 |] %33
V:4
 B,,2 B,,2 B,,2 | B,,>B,, B,,4 | E,2 E,2 E,2 | B,,6 | B,,2 B,,2 B,,2 | B,,>B,, B,,4 | C,2 C,2 C,2 | %7
 F,6 | B,,2 B,,2 B,,2 | E,>E, E,4 | z2 F,2 F,2 | B,,6 | G,2 G,2 G,2 | C,>C, C,4 | F,2 F,2 F,2 | %15
 B,,6 | z2 F,F, z A, | .A,2 z2 z2 | z2 G,G, z G, | .G,2 z2 z2 | z2 A,A, z A, | .A,2 z2 z2 | %22
 z2 [G,B,][G,B,] z [G,B,] | .[G,B,]2 [A,C][A,C] z [A,C] | .[A,C]2 F,F, z A, | .A,2 z2 z2 | %26
 z B,,2 A,, C,2 | B,,D,- D,4- | D,2 [G,=B,D][G,B,D] [G,B,D][G,B,D] | %29
 [G,=B,D][C,G,] [C,G,][C,G,] C,,D,, | E,,F,, ^F,,=F,, F,,G,, | A,,B,,- B,,4- | B,,4 z2 |] %33
V:5
 x6 | x6 | x6 | x6 | x6 | x6 | x6 | x6 | x6 | x6 | x6 | x6 | x6 | x6 | x4[K:bass] x2 | x6 | %16
 z B,,3 D,2- | D, E,3 E,2- | E, C,3 =E,2- | E, F,3 F,2- | F, D,3 ^F,2- | F, .G,3 G,2 | z C,3 C,2- | %23
 C, D,3 F,2- | F, B,,3 D,2- | D, E,3 E,2- | E, z z2[K:treble] z2 | x6 | z[K:bass] G,,- G,,4- | %29
 G,, z z2 z2 | x6 | x6 | x6 |] %33

